svgs/regular/mailbox.svg

<svg xmlns="http://www.w3.org/2000/svg" viewBox="0 0 576 512"><!--! Font Awesome Pro 6.6.0 by @fontawesome - https://fontawesome.com License - https://fontawesome.com/license (Commercial License) Copyright 2024 Fonticons, Inc. --><path d="M48 208c0-53 43-96 96-96s96 43 96 96l0 192L64 400c-8.8 0-16-7.2-16-16l0-176zM240 448l48 0 224 0c35.3 0 64-28.7 64-64l0-176c0-79.5-64.5-144-144-144L144 64C64.5 64 0 128.5 0 208L0 384c0 35.3 28.7 64 64 64l176 0zm48-240c0-36.9-13.9-70.5-36.7-96L432 112c53 0 96 43 96 96l0 176c0 8.8-7.2 16-16 16l-224 0 0-192zM104 192c-13.3 0-24 10.7-24 24s10.7 24 24 24l80 0c13.3 0 24-10.7 24-24s-10.7-24-24-24l-80 0zm256 0c-13.3 0-24 10.7-24 24s10.7 24 24 24l56 0 0 24c0 13.3 10.7 24 24 24l16 0c13.3 0 24-10.7 24-24l0-48c0-13.3-10.7-24-24-24l-16 0-80 0z"/></svg>

<svg xmlns="http://www.w3.org/2000/svg" viewBox="0 0 576 512"><!--! Font Awesome Pro 6.5.2 by @fontawesome - https://fontawesome.com License - https://fontawesome.com/license (Commercial License) Copyright 2024 Fonticons, Inc. --><path d="M48 208c0-53 43-96 96-96s96 43 96 96V400H64c-8.8 0-16-7.2-16-16V208zM240 448h48H512c35.3 0 64-28.7 64-64V208c0-79.5-64.5-144-144-144H144C64.5 64 0 128.5 0 208V384c0 35.3 28.7 64 64 64H240zm48-240c0-36.9-13.9-70.5-36.7-96H432c53 0 96 43 96 96V384c0 8.8-7.2 16-16 16H288V208zM104 192c-13.3 0-24 10.7-24 24s10.7 24 24 24h80c13.3 0 24-10.7 24-24s-10.7-24-24-24H104zm256 0c-13.3 0-24 10.7-24 24s10.7 24 24 24h56v24c0 13.3 10.7 24 24 24h16c13.3 0 24-10.7 24-24V216c0-13.3-10.7-24-24-24H440 360z"/></svg>
